src/assets/icons/vk.svg

<svg width="41" height="41" viewBox="0 0 41 41" xmlns="http://www.w3.org/2000/svg">
  <path
    d="M39.5884 9.99466C39.8631 9.06646 39.5884 8.3833 38.2666 8.3833H33.8929C32.7791 8.3833 32.2667 8.96992 31.992 9.62338C31.992 9.62338 29.7643 15.0515 26.6158 18.5712C25.5985 19.5885 25.1307 19.9153 24.5738 19.9153C24.2991 19.9153 23.8758 19.5885 23.8758 18.6603V9.99466C23.8758 8.88082 23.5639 8.3833 22.6431 8.3833H15.767C15.069 8.3833 14.6532 8.90309 14.6532 9.38576C14.6532 10.4402 16.2274 10.6852 16.3908 13.6555V20.1009C16.3908 21.5118 16.1383 21.7717 15.5814 21.7717C14.0963 21.7717 10.4874 16.3213 8.34886 10.0838C7.91818 8.87339 7.49492 8.3833 6.37365 8.3833H1.99997C0.75247 8.3833 0.5 8.96992 0.5 9.62338C0.5 10.7818 1.98512 16.5366 7.41324 24.1404C11.0295 29.3309 16.1235 32.1452 20.757 32.1452C23.5416 32.1452 23.8832 31.5215 23.8832 30.4448C23.8832 25.4845 23.6308 25.0167 25.0268 25.0167C25.6728 25.0167 26.7866 25.3434 29.3856 27.8458C32.3558 30.8161 32.8459 32.1452 34.5093 32.1452H38.8829C40.1304 32.1452 40.7616 31.5215 40.3978 30.2888C39.5661 27.6973 33.9449 22.3657 33.6924 22.0093C33.0464 21.1776 33.2321 20.8063 33.6924 20.0638C33.6999 20.0564 39.0389 12.5416 39.5884 9.99466Z" />
</svg>

<svg xmlns="http://www.w3.org/2000/svg" width="40" height="40">
  <path fill="currentColor" d="M39.588 9.995c.275-.929 0-1.612-1.321-1.612h-4.374c-1.114 0-1.626.587-1.901 1.24 0 0-2.228 5.429-5.376 8.948-1.017 1.017-1.485 1.344-2.042 1.344-.275 0-.698-.326-.698-1.255V9.995c0-1.114-.312-1.612-1.233-1.612h-6.876c-.698 0-1.114.52-1.114 1.003 0 1.054 1.574 1.3 1.738 4.27V20.1c0 1.41-.253 1.67-.81 1.67-1.485 0-5.094-5.45-7.232-11.687-.43-1.21-.854-1.7-1.975-1.7H2c-1.248 0-1.5.586-1.5 1.24 0 1.158 1.485 6.913 6.913 14.516 3.617 5.19 8.71 8.005 13.344 8.005 2.785 0 3.126-.624 3.126-1.7 0-4.96-.252-5.428 1.144-5.428.646 0 1.76.326 4.359 2.829 2.97 2.97 3.46 4.3 5.123 4.3h4.374c1.247 0 1.879-.625 1.515-1.857-.832-2.592-6.453-7.923-6.706-8.28-.646-.831-.46-1.203 0-1.945.008-.008 5.347-7.522 5.896-10.07Z"/>
</svg>
